src/assets/duotone/AlignVertically.svg

<?xml version="1.0" encoding="UTF-8"?>
<svg width="24" height="24" viewBox="0 0 24 24" xmlns="http://www.w3.org/2000/svg">
 <path d="m17.4 19.25h-10.8c-1.5 0-2.1-0.64-2.1-2.23v-1.04c0-1.59 0.6-2.23 2.1-2.23h10.8c1.5 0 2.1 0.64 2.1 2.23v1.04c0 1.59-0.6 2.23-2.1 2.23z"/>
 <path d="m12.75 19.25v2c0 0.41-0.34 0.75-0.75 0.75s-0.75-0.34-0.75-0.75v-2h1.5z"/>
 <path d="m12.75 10.75h-1.5v3h1.5v-3z"/>
 <path d="m12.75 2.75v2.5h-1.5v-2.5c0-0.41 0.34-0.75 0.75-0.75s0.75 0.34 0.75 0.75z"/>
 <path d="m15.4 10.75h-6.8c-1.5 0-2.1-0.64-2.1-2.23v-1.04c0-1.59 0.6-2.23 2.1-2.23h6.8c1.5 0 2.1 0.64 2.1 2.23v1.04c0 1.59-0.6 2.23-2.1 2.23z" opacity=".4"/>
</svg>

<svg width="24" height="24" viewBox="0 0 24 24"  xmlns="http://www.w3.org/2000/svg">
<path d="M17.4 19.25H6.6C5.1 19.25 4.5 18.61 4.5 17.02V15.98C4.5 14.39 5.1 13.75 6.6 13.75H17.4C18.9 13.75 19.5 14.39 19.5 15.98V17.02C19.5 18.61 18.9 19.25 17.4 19.25Z" />
<path d="M12.75 19.25V21.25C12.75 21.66 12.41 22 12 22C11.59 22 11.25 21.66 11.25 21.25V19.25H12.75Z" />
<path d="M12.75 10.75H11.25V13.75H12.75V10.75Z" />
<path d="M12.75 2.75V5.25H11.25V2.75C11.25 2.34 11.59 2 12 2C12.41 2 12.75 2.34 12.75 2.75Z" />
<path opacity="0.4" d="M15.4 10.75H8.6C7.1 10.75 6.5 10.11 6.5 8.52V7.48C6.5 5.89 7.1 5.25 8.6 5.25H15.4C16.9 5.25 17.5 5.89 17.5 7.48V8.52C17.5 10.11 16.9 10.75 15.4 10.75Z" />
</svg>
